Flat-Remix-Blue-Dark/apps/scalable/qelectrotech.svg

<svg xmlns="http://www.w3.org/2000/svg" xmlns:xlink="http://www.w3.org/1999/xlink" width="512" height="512" version="1.1" viewBox="0 0 384 384"> <defs> <filter id="alpha" width="100%" height="100%" x="0%" y="0%" filterUnits="objectBoundingBox"> <feColorMatrix in="SourceGraphic" type="matrix" values="0 0 0 0 1 0 0 0 0 1 0 0 0 0 1 0 0 0 1 0"/> </filter> <mask id="mask0"> <g filter="url(#alpha)"> <rect width="384" height="384" x="0" y="0" style="fill:rgb(0%,0%,0%);fill-opacity:0.101961"/> </g> </mask> <clipPath id="clip1"> <rect width="384" height="384" x="0" y="0"/> </clipPath> <g id="surface5" clip-path="url(#clip1)"> <path style="fill:rgb(100.000%,100.000%,100.000%)" d="M 42 24 C 32.027344 24 24 32.027344 24 42 L 24 48 C 24 38.027344 32.027344 30 42 30 L 342 30 C 351.972656 30 360 38.027344 360 48 L 360 42 C 360 32.027344 351.972656 24 342 24 Z M 42 24"/> </g> <mask id="mask1"> <g filter="url(#alpha)"> <rect width="384" height="384" x="0" y="0" style="fill:rgb(0%,0%,0%);fill-opacity:0.2"/> </g> </mask> <clipPath id="clip2"> <rect width="384" height="384" x="0" y="0"/> </clipPath> <g id="surface8" clip-path="url(#clip2)"> <path style="fill:rgb(0%,0%,0%)" d="M 24 342 L 24 348 C 24 357.972656 32.027344 366 42 366 L 342 366 C 351.972656 366 360 357.972656 360 348 L 360 342 C 360 351.972656 351.972656 360 342 360 L 42 360 C 32.027344 360 24 351.972656 24 342 Z M 24 342"/> </g> </defs> <g> <path style="fill:rgb(80.000%,80.000%,80.000%)" d="M 360 342 L 360 42 C 360 32.058594 351.941406 24 342 24 L 42 24 C 32.058594 24 24 32.058594 24 42 L 24 342 C 24 351.941406 32.058594 360 42 360 L 342 360 C 351.941406 360 360 351.941406 360 342 Z M 360 342"/> <path style="fill:rgb(29.803%,29.803%,29.803%)" d="M 192 72 C 175.105469 72 158.386719 78.613281 145.5 91.5 C 134.125 102.875 127.714844 117.144531 126.371094 132 L 72 132 L 72 288 L 180 288 L 180 306 L 192 306 L 192 258 L 180 258 L 180 276 L 84 276 L 84 144 L 126.371094 144 C 127.714844 158.855469 134.125 173.125 145.5 184.5 C 171.277344 210.277344 212.722656 210.277344 238.5 184.5 C 249.875 173.125 256.285156 158.855469 257.628906 144 L 300 144 L 300 276 L 216 276 L 216 240 L 204 240 L 204 324 L 216 324 L 216 288 L 312 288 L 312 132 L 257.628906 132 C 256.285156 117.144531 249.875 102.875 238.5 91.5 C 225.613281 78.613281 208.894531 72 192 72 Z M 192 84.371094 C 203.796875 84.371094 215.554688 88.164062 225.371094 96 L 192 129.371094 L 158.628906 96 C 168.445312 88.164062 180.203125 84.371094 192 84.371094 Z M 150 104.628906 L 183.371094 138 L 150 171.371094 C 134.339844 151.738281 134.339844 124.246094 150 104.617188 Z M 234 104.628906 C 249.660156 124.261719 249.660156 151.753906 234 171.382812 L 200.628906 138.011719 L 234 104.640625 Z M 192 146.628906 L 225.371094 180 C 205.738281 195.660156 178.246094 195.660156 158.617188 180 L 191.988281 146.628906 Z M 192 146.628906"/> <use mask="url(#mask0)" xlink:href="#surface5"/> <use mask="url(#mask1)" xlink:href="#surface8"/> </g> </svg>

<svg width="512" height="512" version="1.1" viewBox="0 0 384 384" xmlns="http://www.w3.org/2000/svg" xmlns:xlink="http://www.w3.org/1999/xlink"><defs><clipPath><rect width="384" height="384"/></clipPath><clipPath><rect width="384" height="384"/></clipPath><clipPath><rect width="384" height="384"/></clipPath><clipPath><rect width="384" height="384"/></clipPath><clipPath><rect width="384" height="384"/></clipPath><clipPath><rect width="384" height="384"/></clipPath><clipPath><rect width="384" height="384"/></clipPath><clipPath><rect width="384" height="384"/></clipPath><clipPath><rect width="384" height="384"/></clipPath><clipPath><rect width="384" height="384"/></clipPath><clipPath><rect width="384" height="384"/></clipPath><clipPath><rect width="384" height="384"/></clipPath><clipPath><rect width="384" height="384"/></clipPath><clipPath><rect width="384" height="384"/></clipPath><clipPath><rect width="384" height="384"/></clipPath><clipPath><rect width="384" height="384"/></clipPath><clipPath><rect width="384" height="384"/></clipPath><clipPath><rect width="384" height="384"/></clipPath><clipPath><rect width="384" height="384"/></clipPath><clipPath><rect width="384" height="384"/></clipPath><clipPath><rect width="384" height="384"/></clipPath><clipPath><rect width="384" height="384"/></clipPath><clipPath><rect width="384" height="384"/></clipPath><clipPath><rect width="384" height="384"/></clipPath><clipPath><rect width="384" height="384"/></clipPath><clipPath><rect width="384" height="384"/></clipPath><clipPath><rect width="384" height="384"/></clipPath><clipPath><rect width="384" height="384"/></clipPath><clipPath><rect width="384" height="384"/></clipPath><clipPath><rect width="384" height="384"/></clipPath><clipPath><rect width="384" height="384"/></clipPath><clipPath><rect width="384" height="384"/></clipPath><clipPath><rect width="384" height="384"/></clipPath><clipPath><rect width="384" height="384"/></clipPath><clipPath><rect width="384" height="384"/></clipPath><clipPath><rect width="384" height="384"/></clipPath><clipPath><rect width="384" height="384"/></clipPath><clipPath><rect width="384" height="384"/></clipPath><clipPath><rect width="384" height="384"/></clipPath><clipPath><rect width="384" height="384"/></clipPath><clipPath><rect width="384" height="384"/></clipPath><clipPath><rect width="384" height="384"/></clipPath><clipPath><rect width="384" height="384"/></clipPath><clipPath><rect width="384" height="384"/></clipPath><clipPath><rect width="384" height="384"/></clipPath><clipPath><rect width="384" height="384"/></clipPath><clipPath><rect width="384" height="384"/></clipPath><clipPath><rect width="384" height="384"/></clipPath><clipPath><rect width="384" height="384"/></clipPath><clipPath><rect width="384" height="384"/></clipPath><clipPath><rect width="384" height="384"/></clipPath><clipPath><rect width="384" height="384"/></clipPath><clipPath id="c"><path d="m111 119h177v23h-177z"/></clipPath><clipPath><path d="m368.64 199.88c0-93.234-75.602-168.75-168.75-168.75-93.152 0-168.75 75.516-168.75 168.75s75.598 168.75 168.75 168.75c93.148 0 168.75-75.516 168.75-168.75z"/></clipPath><clipPath id="b"><path d="m177 130h45v89h-45z"/></clipPath><clipPath><path d="m368.64 199.88c0-93.234-75.602-168.75-168.75-168.75-93.152 0-168.75 75.516-168.75 168.75s75.598 168.75 168.75 168.75c93.148 0 168.75-75.516 168.75-168.75z"/></clipPath><clipPath id="a"><path d="m111 207h177v89h-177z"/></clipPath><clipPath><path d="m368.64 199.88c0-93.234-75.602-168.75-168.75-168.75-93.152 0-168.75 75.516-168.75 168.75s75.598 168.75 168.75 168.75c93.148 0 168.75-75.516 168.75-168.75z"/></clipPath><clipPath id="d"><rect width="384" height="384"/></clipPath><g clip-path="url(#d)"><g clip-path="url(#c)"></g><g clip-path="url(#b)"></g><g clip-path="url(#a)"></g></g><clipPath><rect width="384" height="384"/></clipPath><clipPath><rect width="384" height="384"/></clipPath><clipPath><rect width="384" height="384"/></clipPath><clipPath><rect width="384" height="384"/></clipPath><clipPath><rect width="384" height="384"/></clipPath><clipPath><rect width="384" height="384"/></clipPath><clipPath><rect width="384" height="384"/></clipPath><clipPath><rect width="384" height="384"/></clipPath><clipPath><rect width="384" height="384"/></clipPath><clipPath><rect width="384" height="384"/></clipPath><clipPath><rect width="384" height="384"/></clipPath></defs><path d="m360 342v-300c0-9.9414-8.0586-18-18-18h-300c-9.9414 0-18 8.0586-18 18v300c0 9.9414 8.0586 18 18 18h300c9.9414 0 18-8.0586 18-18z" style="fill:#fff;opacity:.2;stroke-width:7.5;stroke:#000"/><path d="m360 342v-300c0-9.9414-8.0586-18-18-18h-300c-9.9414 0-18 8.0586-18 18v300c0 9.9414 8.0586 18 18 18h300c9.9414 0 18-8.0586 18-18z" style="fill:#fff"/><path d="m192 72c-16.895 0-33.613 6.6133-46.5 19.5-11.375 11.375-17.785 25.645-19.129 40.5h-54.371v156h108v18h12v-48h-12v18h-96v-132h42.371c1.3438 14.855 7.7539 29.125 19.129 40.5 25.777 25.777 67.223 25.777 93 0 11.375-11.375 17.785-25.645 19.129-40.5h42.371v132h-84v-36h-12v84h12v-36h96v-156h-54.371c-1.3438-14.855-7.7539-29.125-19.129-40.5-12.887-12.887-29.605-19.5-46.5-19.5zm0 12.371c11.797 0 23.555 3.793 33.371 11.629l-33.371 33.371-33.371-33.371c9.8164-7.8359 21.574-11.629 33.371-11.629zm-42 20.258 33.371 33.371-33.371 33.371c-15.66-19.633-15.66-47.125 0-66.754zm84 0c15.66 19.633 15.66 47.125 0 66.754l-33.371-33.371 33.371-33.371zm-42 42 33.371 33.371c-19.633 15.66-47.125 15.66-66.754 0l33.371-33.371z" style="fill:#272a34"/><path transform="scale(.75)" d="m32 446v10c0 13.255 10.745 24 24 24h400c13.255 0 24-10.745 24-24v-10c0 13.255-10.745 24-24 24h-400c-13.255 0-24-10.745-24-24z" style="fill:#111;opacity:.3;stroke-width:1.3333"/><path transform="scale(.75)" d="m56 32c-13.255 0-24 10.745-24 24v10c0-13.255 10.745-24 24-24h400c13.255 0 24 10.745 24 24v-10c0-13.255-10.745-24-24-24h-400z" style="opacity:.1;stroke-width:1.3333"/></svg>
